svgs/sharp-light/signal-strong.svg

<svg xmlns="http://www.w3.org/2000/svg" viewBox="0 0 640 512"><!--! Font Awesome Pro 6.6.0 by @fontawesome - https://fontawesome.com License - https://fontawesome.com/license (Commercial License) Copyright 2024 Fonticons, Inc. --><path d="M464 112l0-16-32 0 0 16 0 384 0 16 32 0 0-16 0-384zM336 192l-32 0 0 16 0 288 0 16 32 0 0-16 0-288 0-16zM208 304l0-16-32 0 0 16 0 192 0 16 32 0 0-16 0-192zM80 400l0-16-32 0 0 16 0 96 0 16 32 0 0-16 0-96z"/></svg>

<svg xmlns="http://www.w3.org/2000/svg" viewBox="0 0 640 512"><!--! Font Awesome Pro 6.5.2 by @fontawesome - https://fontawesome.com License - https://fontawesome.com/license (Commercial License) Copyright 2024 Fonticons, Inc. --><path d="M464 112V96H432v16V496v16h32V496 112zM336 192H304v16V496v16h32V496 208 192zM208 304V288H176v16V496v16h32V496 304zM80 400V384H48v16 96 16H80V496 400z"/></svg>
